X:1
T:Come Home
T:Come Home
T:William W. Vansant
T:J. David Jaquette, 1900
T:Public Domain Courtesy of the Cyber Hymnal™
T:Public Domain Courtesy of the Cyber Hymnal™
C:William W. Vansant
Z:Public Domain
Z:Courtesy of the Cyber Hymnal™
%%score ( 1 2 ) ( 3 4 )
L:1/8
Q:1/4=98
M:4/4
K:F
V:1 treble 
V:2 treble 
V:3 bass 
V:4 bass 
V:1
 C2 | [FA]2 [FA][FA] [FA]2 [_EA][EA] | [DB]2 [DB][DB] [DB]3 [FB] | [FA]2 [FA][FA] [Fc]2 [GB][FA] | %4
w: 1.~List!|sin- ner, the voice of thy|Sav- ior is heard, At-|tend and re- ject not His|
w: 2.~Why|lin- ger in dark- ness and|dan- ger so long? The|day of sal- va- tion is|
w: 3.~Full|long has the bur- den of|sin weighed thee down, O,|hast- en to Cal- va- ry’s|
w: 4.~Des-|pised and re- jec- ted, at|length He may leave, His|Spir- it no lon- ger may|
 [EG]6 z C | [FA]2 [FA][EG] F2 FF | F2 [EG][_EA] [DB]3 [Fd] | [Fc]2 [FA]F [EG]2 [FA][EG] | F6 || %9
w: plea; He|asks for thy heart, now be-|lieve on His word, He|of- fers sweet par- don to|thee.|
w: near; Come,|all ye that la- bor, His|love is so strong, That|all His sweet pro- mise may|share.|
w: side; See,|there on the cross He has|pur- chased thy crown, A|ran- som for sin- ners has|died.|
w: strive; His|mer- cy and par- don, oh,|wilt thou re- ceive? ’Twill|peace to thy soul quick- ly|give.|
"^Refrain" (EF) | (z2 FG) x6 | (z2 AB) x8 | [Fc]2 [Fd][Fc] [FA]2 F2 | [EG]6 C2 | (z2 [CG])[CF] x6 | %15
w: ||||||
w: Come *|||home, come home, Come, trust|in a|* Sav-|
w: ||||||
w: ||||||
 [DF]2 [DB]2 !fermata![Fd]3 [Fd] | [Fc]2 [FA]F [EG]2 ([FA][EG]) | F6 |] %18
w: |||
w: ior’s love; Come home,|wea- ry one, come home, *|Come|
w: |||
w: |||
V:2
 C2 | x8 | x8 | x8 | x7 C | x4 F2 FF | F2 x6 | x3 F x4 | F6 || x2 | (G6 E2 E2) | (A6 F2 F2) F2 | %12
 x6 F2 | x8 | (A6 F2 F2) | x8 | x3 F x4 | F6 |] %18
V:3
 [F,A,]2 | [F,C]2 [F,C][F,C] [F,C]2 [F,C][F,C] | [B,,B,]2 [B,,F,][B,,F,] [B,,B,]3 [B,,D] | %3
w: ~|~ ~ ~ ~ ~ ~|~ ~ ~ ~ ~|
 [F,C]2 [F,C][F,C] [F,A,]2 [E,C][F,C] | [C,C]6 z [F,A,] | [F,C]2 [F,C][F,B,] [F,A,]2 [F,A,][F,A,] | %6
w: ~ ~ ~ ~ ~ ~|~ ~|~ ~ ~ ~ ~ ~|
 [F,A,]2 [F,B,][F,C] [B,,B,]3 [B,,B,] | [C,A,]2 [C,C]A, [C,B,]2 [C,C][C,B,] | [F,A,]6 || z2 | %10
w: ~ ~ ~ ~ ~|~ ~ ~ ~ ~ ~|~||
 z2 [C,C]2 [C,C]2 z2 x2 | z2 [F,C]2 [F,C]2 (CB,) x4 | [F,A,]2 [F,B,][F,A,] [F,C]2 [F,A,]2 | %13
w: Come home,|come home, ~ *|~ ~ ~ ~ ~|
 [C,C]6 z2 | z2 [F,C]2 [F,C]2 [F,B,][F,A,] x2 | [B,,B,]2 [B,,B,]2 !fermata![B,,B,]3 [B,,B,] | %16
w: ~|Come home, * *||
 [C,A,]2 [C,C][C,A,] [C,B,]2 (CB,) | [F,A,]6 |] %18
w: ||
V:4
 x2 | x8 | x8 | x8 | x8 | x8 | x8 | x3 A, x4 | x6 || x2 | x10 | x6 F,2 x4 | x8 | x8 | x10 | x8 | %16
 x6 C,2 | x6 |] %18

